X: 42584
T: Where Is The Cat?
R: slide
M: 12/8
K: Dmajor
|:EFE A2E F2E A3|EFE A2c BcA F2E|
EFE A2E F2E A3|cec d2c BcA F2E:|
|:cBc e2c BAF d3|cBc e2c BcA F2E|
cBc e2c BAF d3|faf e2c BcA F2E:|

